X: 429
T:Weedwalker
M: C|
L: 1/8
K: D
v"D"f4 f3  (f |e2) ud2 B2 A2 |"G"B3  (c d2) dc |"D"BA F2 "A"A4  |
v"D"f4 f3 v(f |e2)  d2 B2 A2 |"G"B3 u(c d2) dB |"A"AF E2 "D"D4 :|
|: v"Bm"B4      B3   (B  |"D"A2) F2 E2 D2 |v"Bm"B4 B3 (B |"D"A2) F2 A4      |
 u"G"B2 vB2- Bu(B AB) |"D"A2  F2 E2 D2 |  "A"E4 E4    |"D"D4   u(DE) FA :|

